!!!OTL-incipit: AUS DEM KARLSRUH MUSS ICH REISEN, AUS DER ALLERSCHOENSTEN STADT
!!!ARE: Europa, Mitteleuropa, Deutschland, Baden
!!!SCT: Z0248
!!!YEM: Copyright 1995, estate of Helmut Schaffrath.
**kern	**text
*ICvox	*
*M3/4	*
*k[f#]	*
*G:	*
!LO:TX:a:t=Badeniſch.	!
!LO:TX:a:t=Handwerkslied.	!
{8g	Aus
8b/	dem
=1	=1
4.dd	Karlsruh
8gg	.
8dd	muß
8cc	ich
=2	=2
8ccL	rei-
8bJ	.
4b}	-ſen,
{8aL	aus
8bJ	der
=3	=3
8ddL	al-
8ccJ	-ler-
4cc	-ſchön-
8bL	-ſten
8gJ	.
=4	=4
4a	Stadt,
4r}	.
{8a	muß
8b/	auch
=5	=5
4.cc	al-
8b/	-les
8b/	drin
8a	ver-
=6	=6
8aL	-laſſen,
8gJ	.
4g}	was
!LO:TUP:a	!
{(12ddL	mein
12ee	.
12ff#J)	.
=7	=7
8gg	Herʒ
8dd	ge-
(<4b	-lie-
8a)	.
8a	-bet
=8	=8
2g}	hat.
{8a	muß
8b/	auch
=9	=9
4.cc	al-
8b/	-les
8b/	drin
8a	ver-
=10	=10
8aL	-laſſen,
8gJ	.
4g}	was
!LO:TUP:a	!
{(12ddL	mein
12ee	.
12ff#J)	.
=11	=11
8gg	Herʒ
8dd	ge-
(<4b	-lie-
8a)	.
8a	-bet
=12	=12
2g}	hat.
==	==
!!!AGN: Handwerker - Lied, Wanderschaft
!!!ONB: ESAC (Essen Associative Code) Database: ZUCCAL
!!!AMT: simple triple
!!!AIN: vox
!!!EED: Helmut Schaffrath
!!!EEV: 1.0
!!!RDF**kern: <= below
!!!GTL: III. Soldaten-, Jaeger-, Schiffer-, Fuhrmanns- und Handwerks-Lieder.
!!!URL-scan:https://www.digitale-sammlungen.de/de/view/bsb11160571?page=459
!!!ENC: Anna Maria Matuszewska
!!!EEV: 2025/01/29
*-	*-
